public/logos/RB.svg

<?xml version="1.0" encoding="UTF-8"?>
<svg xmlns="http://www.w3.org/2000/svg" xmlns:xlink="http://www.w3.org/1999/xlink" width="176pt" height="33.68pt" viewBox="0 0 176 33.68" version="1.1">
<defs>
<clipPath id="clip1">
  <path d="M 129 0 L 176 0 L 176 33.679688 L 129 33.679688 Z M 129 0 "/>
</clipPath>
</defs>
<g id="surface1">
<path style=" stroke:none;fill-rule:evenodd;fill:rgb(17.686462%,30.09491%,64.910889%);fill-opacity:1;" d="M 25.28125 11.136719 L 25.371094 11.050781 L 28.550781 10.960938 L 28.550781 7.777344 L 23.425781 7.777344 C 15.734375 17.5 7.957031 23.691406 0 23.511719 L 0.0898438 26.253906 L 11.492188 26.253906 Z M 39.957031 18.386719 L 40.398438 18.386719 C 41.015625 18.386719 41.722656 17.855469 41.988281 17.324219 L 42.164062 16.796875 C 42.429688 16.265625 42.164062 15.734375 41.546875 15.734375 L 38.894531 15.734375 L 37.746094 18.386719 Z M 45.261719 16.53125 C 45.789062 15.46875 45.789062 14.675781 45.261719 14.230469 C 44.90625 13.878906 44.199219 13.703125 43.316406 13.703125 L 36.773438 13.703125 L 32.796875 21.390625 L 31.648438 23.601562 L 35.273438 23.601562 L 36.859375 20.242188 L 38.191406 20.242188 L 38.542969 23.601562 L 41.902344 23.601562 L 41.636719 20.242188 C 43.316406 20.152344 43.757812 19.445312 44.199219 18.5625 Z M 52.683594 15.824219 L 53.832031 13.703125 L 50.296875 13.703125 L 45.261719 22.894531 L 44.90625 23.601562 L 48.445312 23.601562 Z M 58.871094 19.535156 L 59.492188 19.535156 L 60.640625 15.292969 L 58.871094 17.414062 L 57.195312 19.535156 Z M 58.871094 21.390625 L 58.960938 21.125 L 56.046875 21.125 L 54.277344 23.601562 L 51.535156 23.601562 L 52.683594 22.007812 L 58.609375 13.703125 L 63.824219 13.703125 L 61.347656 23.601562 L 58.078125 23.601562 Z M 77.347656 16 L 78.496094 13.703125 L 76.109375 13.703125 L 73.105469 19.976562 L 72.929688 13.703125 L 68.949219 13.703125 L 64.089844 23.601562 L 66.476562 23.601562 L 69.480469 17.324219 L 69.660156 23.601562 L 73.632812 23.601562 Z M 83.625 19.535156 L 84.15625 19.535156 L 85.304688 15.292969 L 83.625 17.414062 L 81.855469 19.535156 Z M 83.625 21.390625 L 83.710938 21.125 L 80.796875 21.125 L 79.027344 23.601562 L 76.199219 23.601562 L 77.347656 22.007812 L 83.269531 13.703125 L 88.578125 13.703125 L 86.011719 23.601562 L 82.828125 23.601562 Z M 97.058594 14.585938 L 97.503906 13.703125 L 93.96875 13.703125 L 88.578125 23.601562 L 92.199219 23.601562 Z M 104.929688 13.703125 L 108.289062 13.703125 C 110.058594 13.703125 111.203125 14.496094 110.234375 16.53125 L 109.171875 18.5625 C 108.640625 19.445312 108.199219 20.152344 106.519531 20.242188 L 106.875 23.601562 L 103.515625 23.601562 L 103.074219 20.242188 L 101.746094 20.242188 L 100.15625 23.601562 L 96.53125 23.601562 L 97.058594 22.71875 L 101.746094 13.703125 Z M 104.929688 18.386719 L 105.371094 18.386719 C 105.902344 18.386719 106.605469 17.855469 106.875 17.324219 L 107.050781 16.796875 C 107.316406 16.265625 107.050781 15.734375 106.519531 15.734375 L 103.867188 15.734375 L 102.632812 18.386719 Z M 25.28125 23.601562 L 22.011719 23.601562 L 24.308594 19.535156 L 24.308594 13.703125 L 27.757812 13.703125 L 27.757812 17.058594 L 30.941406 13.703125 L 33.945312 13.703125 L 32.796875 14.847656 L 27.84375 19.710938 L 25.898438 23.601562 L 25.28125 23.601562 "/>
<g clip-path="url(#clip1)" clip-rule="nonzero">
<path style=" stroke:none;fill-rule:evenodd;fill:rgb(17.686462%,30.09491%,64.910889%);fill-opacity:1;" d="M 152.042969 17.589844 L 154.785156 18.738281 C 155.492188 17.589844 155.492188 17.589844 156.640625 18.03125 C 165.394531 21.476562 171.933594 21.214844 175.648438 17.589844 C 172.640625 19.09375 169.636719 19.625 166.539062 19.359375 C 166.71875 18.5625 166.71875 17.679688 166.71875 16.882812 C 166.71875 8.308594 160.355469 1.148438 152.042969 0.175781 C 151.425781 0.0859375 150.71875 0 150.011719 0 C 145.328125 0 141.082031 1.945312 137.988281 4.949219 C 137.105469 4.332031 136.132812 3.976562 134.894531 4.152344 C 138.695312 5.921875 140.375 10.871094 144.617188 9.722656 C 142.230469 8.839844 140.640625 7.160156 139.140625 5.921875 C 141.96875 3.179688 145.769531 1.414062 150.011719 1.414062 C 150.71875 1.414062 151.425781 1.503906 152.042969 1.589844 C 159.558594 2.652344 165.394531 9.105469 165.394531 16.882812 C 165.394531 17.679688 165.304688 18.472656 165.214844 19.183594 C 161.679688 18.738281 158.144531 17.148438 154.519531 15.203125 C 153.546875 14.675781 152.664062 14.496094 152.042969 14.847656 C 151.425781 15.113281 150.984375 15.824219 150.808594 16.96875 Z M 152.042969 21.921875 L 154.519531 19.535156 L 152.664062 18.5625 L 152.042969 19.183594 L 151.777344 19.445312 C 151.949219 19.53125 152.035156 19.777344 152.042969 19.953125 L 152.042969 19.996094 C 152.035156 20.433594 151.683594 20.859375 151.25 20.859375 C 150.984375 20.859375 150.71875 20.683594 150.632812 20.507812 L 149.570312 21.390625 L 151.425781 22.539062 Z M 152.042969 32.089844 C 151.425781 32.265625 150.71875 32.265625 150.011719 32.265625 C 141.523438 32.265625 134.542969 25.371094 134.542969 16.882812 C 134.542969 13.878906 135.425781 11.050781 136.929688 8.75 C 139.402344 11.226562 141.171875 13.964844 142.761719 16.621094 C 143.824219 18.648438 145.238281 19.359375 147.09375 20.242188 C 147.183594 20.066406 147.359375 19.976562 147.535156 19.976562 C 147.800781 19.976562 147.980469 20.242188 147.980469 20.507812 C 147.980469 20.507812 147.980469 20.59375 147.980469 20.683594 C 148.242188 20.859375 148.597656 21.039062 148.949219 21.214844 L 151.867188 18.472656 C 151.425781 18.296875 150.984375 18.121094 150.632812 17.941406 C 150.542969 18.121094 150.363281 18.210938 150.1875 18.210938 C 149.921875 18.210938 149.746094 18.03125 149.746094 17.765625 C 149.746094 17.679688 149.746094 17.679688 149.746094 17.589844 C 146.296875 15.910156 143.734375 13.789062 141.613281 11.578125 C 138.785156 8.574219 136.664062 5.480469 133.039062 3.535156 L 129.328125 3.535156 C 131.890625 4.773438 134.011719 6.1875 135.777344 7.6875 C 134.101562 10.339844 133.125 13.523438 133.125 16.882812 C 133.125 26.164062 140.730469 33.679688 150.011719 33.679688 C 150.71875 33.679688 151.425781 33.679688 152.042969 33.589844 C 156.464844 33.0625 160.441406 30.761719 163.09375 27.402344 C 163.445312 27.667969 163.800781 27.933594 164.242188 28.195312 L 166.363281 26.785156 L 156.816406 23.160156 L 167.070312 26.074219 L 170.34375 24.132812 C 165.304688 24.042969 160.617188 23.511719 157.261719 21.832031 C 161.945312 22.894531 166.984375 23.160156 172.199219 23.070312 L 176 20.332031 C 169.105469 21.746094 162.300781 21.566406 155.3125 19.535156 L 152.042969 22.980469 C 155.226562 25.101562 158.496094 25.101562 161.769531 26.695312 C 159.382812 29.613281 155.933594 31.558594 152.042969 32.089844 "/>
</g>
</g>
</svg>

<svg xmlns="http://www.w3.org/2000/svg" width="176pt" height="44.907" viewBox="0 0 176 33.68"><defs><clipPath id="a"><path d="M129 0h47v33.68h-47Zm0 0"/></clipPath></defs><path d="m25.281 11.137.09-.086 3.18-.09V7.777h-5.125C15.734 17.5 7.957 23.691 0 23.512l.09 2.742h11.402Zm14.676 7.25h.441c.618 0 1.325-.532 1.59-1.063l.176-.527c.266-.531 0-1.063-.617-1.063h-2.652l-1.149 2.653Zm5.305-1.856c.527-1.062.527-1.855 0-2.3-.356-.352-1.063-.528-1.946-.528h-6.543l-3.976 7.688-1.149 2.21h3.625l1.586-3.359h1.332l.352 3.36h3.36l-.266-3.36c1.68-.09 2.12-.797 2.562-1.68Zm7.422-.707 1.148-2.12h-3.535l-5.035 9.19-.356.708h3.54Zm6.187 3.711h.621l1.149-4.242-1.77 2.121-1.676 2.121Zm0 1.856.09-.266h-2.914l-1.77 2.477h-2.742l1.149-1.594 5.925-8.305h5.215l-2.476 9.899h-3.27ZM77.348 16l1.148-2.297H76.11l-3.004 6.274-.175-6.274h-3.98l-4.86 9.899h2.387l3.003-6.278.18 6.278h3.973Zm6.277 3.535h.531l1.149-4.242-1.68 2.121-1.77 2.121Zm0 1.856.086-.266h-2.914l-1.77 2.477H76.2l1.149-1.594 5.922-8.305h5.308l-2.566 9.899h-3.184Zm13.434-6.805.445-.883h-3.535l-5.39 9.899h3.62Zm7.87-.883h3.36c1.77 0 2.914.793 1.945 2.828l-1.062 2.032c-.531.882-.973 1.59-2.652 1.68l.355 3.359h-3.36l-.44-3.36h-1.329l-1.59 3.36h-3.625l.528-.883 4.687-9.016Zm0 4.684h.442c.531 0 1.234-.532 1.504-1.063l.176-.527c.265-.531 0-1.063-.531-1.063h-2.653l-1.234 2.653Zm-79.648 5.215h-3.27l2.298-4.067v-5.832h3.449v3.356l3.183-3.356h3.004l-1.148 1.145-4.953 4.863-1.946 3.89z" style="stroke:none;fill-rule:evenodd;fill:#2d4da6;fill-opacity:1"/><g clip-path="url(#a)"><path d="m152.043 17.59 2.742 1.148c.707-1.148.707-1.148 1.856-.707 8.754 3.446 15.293 3.184 19.007-.441-3.007 1.504-6.011 2.035-9.109 1.77.18-.797.18-1.68.18-2.477 0-8.574-6.364-15.735-14.676-16.707-.617-.09-1.324-.176-2.031-.176-4.684 0-8.93 1.945-12.024 4.95-.883-.618-1.855-.973-3.093-.798 3.8 1.77 5.48 6.72 9.722 5.57-2.387-.882-3.976-2.562-5.476-3.8 2.828-2.742 6.629-4.508 10.87-4.508.708 0 1.415.09 2.032.176 7.516 1.062 13.352 7.515 13.352 15.293 0 .797-.09 1.59-.18 2.3-3.535-.445-7.07-2.035-10.695-3.98-.973-.527-1.856-.707-2.477-.355-.617.265-1.059.976-1.234 2.12Zm0 4.332 2.477-2.387-1.856-.973-.621.622-.266.261c.172.086.258.332.266.508v.043c-.008.438-.36.863-.793.863-.266 0-.531-.175-.617-.351l-1.063.883 1.856 1.148Zm0 10.168c-.617.176-1.324.176-2.031.176-8.489 0-15.469-6.895-15.469-15.383 0-3.004.883-5.832 2.387-8.133 2.472 2.477 4.242 5.215 5.832 7.871 1.062 2.027 2.476 2.738 4.332 3.621a.49.49 0 0 1 .441-.265c.266 0 .445.265.445.53v.177c.262.175.618.355.97.53l2.917-2.741a15 15 0 0 1-1.234-.532c-.09.18-.27.27-.446.27-.265 0-.44-.18-.44-.445v-.176c-3.45-1.68-6.013-3.8-8.134-6.012-2.828-3.004-4.949-6.098-8.574-8.043h-3.71c2.562 1.238 4.683 2.653 6.448 4.153a17.24 17.24 0 0 0-2.652 9.195c0 9.281 7.605 16.797 16.887 16.797.707 0 1.414 0 2.031-.09a16.65 16.65 0 0 0 11.05-6.188c.352.266.708.532 1.15.793l2.12-1.41-9.547-3.625 10.254 2.914 3.274-1.941c-5.04-.09-9.727-.621-13.082-2.301 4.683 1.063 9.722 1.328 14.937 1.238L176 20.332c-6.895 1.414-13.7 1.234-20.687-.797l-3.27 3.445c3.184 2.122 6.453 2.122 9.727 3.715-2.387 2.918-5.836 4.864-9.727 5.395" style="stroke:none;fill-rule:evenodd;fill:#2d4da6;fill-opacity:1"/></g></svg>
